src/assets/svg/starter-logo.svg

<?xml version="1.0" encoding="UTF-8"?>
<svg width="157px" height="20px" viewBox="0 0 157 20" version="1.1" xmlns="http://www.w3.org/2000/svg" xmlns:xlink="http://www.w3.org/1999/xlink">
    <!-- Generator: Sketch 53.2 (72643) - https://sketchapp.com -->
    <title>logo</title>
    <desc>Created with Sketch.</desc>
    <g id="Page-1" stroke="none" stroke-width="1" fill="none" fill-rule="evenodd">
        <g id="Desktop-HD" transform="translate(-91.000000, -40.000000)" fill-rule="nonzero">
            <g id="logo" transform="translate(91.000000, 40.000000)">
                <path d="M71.8827586,13.8551724 C72.1172414,15.6275862 73.4551724,16.537931 75.5034483,16.537931 C76.9793103,16.537931 78.1862069,16.0344828 78.1862069,14.9586207 C78.1862069,13.8827586 77.4965517,13.5172414 76.0413793,13.2827586 L73.6896552,12.8827586 C70.537931,12.3793103 68.7931034,11.2 68.7931034,8.45517241 C68.7931034,5.71034483 71.1724138,3.68965517 74.9310345,3.68965517 C79.0206897,3.68965517 81.4758621,5.53103448 81.737931,8.82068966 L78.4206897,8.95862069 C78.1517241,7.27586207 77.0413793,6.44137931 74.8965517,6.44137931 C73.4551724,6.44137931 72.5172414,7.07586207 72.5172414,8.08275862 C72.5172414,8.88965517 73.0551724,9.35862069 74.1241379,9.52413793 L76.9448276,9.99310345 C80.062069,10.4965517 81.9103448,11.8068966 81.9103448,14.5931034 C81.9103448,17.6068966 79.2896552,19.2896552 75.4689655,19.2896552 C71.6482759,19.2896552 68.662069,17.6068966 68.3931034,13.9862069 L71.8827586,13.8551724 Z" id="Path" fill="#C7C7C7"></path>
                <path d="M83.8896552,6.89655172 L81.7724138,6.89655172 L81.7724138,4.53103448 L82.7586207,4.35862069 C84.2,4.12413793 84.6068966,3.3862069 84.937931,2.0137931 L85.4275862,0 L87.8758621,0 L87.8758621,4.08965517 L91.9034483,4.08965517 L91.9034483,6.89655172 L87.8758621,6.89655172 L87.8758621,14.2068966 C87.8758621,15.4827586 88.4482759,16.0551724 89.6551724,16.0551724 C90.5336489,16.0062966 91.3916968,15.771215 92.1724138,15.3655172 L92.1724138,18.0137931 C90.9997632,18.9051639 89.5547811,19.3632695 88.0827586,19.3103448 C85.8,19.3103448 83.8896552,18.3034483 83.8896552,15.1724138 L83.8896552,6.89655172 Z" id="Path" fill="#C7C7C7"></path>
                <path d="M106.689655,15.2965517 C106.689655,16.0689655 106.689655,16.2482759 106.689655,16.2482759 L106.689655,19.2 C106.524964,19.2233921 106.357794,19.2233921 106.193103,19.2 C104.644361,19.2654658 103.297442,18.1479998 103.075862,16.6137931 C102.234483,18.3241379 100.22069,19.2344828 98.0413793,19.2344828 C94.9586207,19.2344828 93.0758621,17.6896552 93.0758621,15.137931 C93.0758621,12.3241379 95.3586207,11.1517241 98.7103448,10.4758621 L102.758621,9.69655172 L102.758621,9.35862069 C102.758621,7.71724138 101.882759,6.71034483 100.172414,6.71034483 C98.708617,6.6436961 97.4364292,7.70634708 97.2413793,9.15862069 L93.5862069,8.82068966 C94.0896552,5.8 96.4068966,3.68965517 100.331034,3.68965517 C104.255172,3.68965517 106.689655,5.51724138 106.689655,9.39310345 L106.689655,15.2965517 Z M102.758621,12.1103448 L100,12.7103448 C98.2551724,13.0827586 97.0137931,13.4 97.0137931,14.862069 C97.0137931,15.862069 97.7862069,16.4689655 99.0827586,16.4689655 C101.193103,16.4689655 102.806897,14.862069 102.806897,12.4758621 L102.758621,12.1103448 Z" id="Shape" fill="#C7C7C7"></path>
                <path d="M117.97931,8.04827586 C117.250702,7.61325116 116.413866,7.39328279 115.565517,7.4137931 C113.496552,7.4137931 112.075862,8.88965517 112.075862,11.5517241 L112.075862,18.862069 L108.048276,18.862069 L108.048276,4.08965517 L112.075862,4.08965517 L112.075862,6.89655172 C112.617971,5.04410935 114.284955,3.74664036 116.213793,3.67586207 C116.952497,3.63613647 117.682565,3.85028976 118.282759,4.28275862 L117.97931,8.04827586 Z" id="Path" fill="#C7C7C7"></path>
                <path d="M121.489655,6.89655172 L119.372414,6.89655172 L119.372414,4.53103448 L120.37931,4.35862069 C121.82069,4.12413793 122.227586,3.3862069 122.558621,2.0137931 L123.027586,0 L125.475862,0 L125.475862,4.08965517 L129.503448,4.08965517 L129.503448,6.89655172 L125.475862,6.89655172 L125.475862,14.2068966 C125.475862,15.4827586 126.048276,16.0551724 127.255172,16.0551724 C128.133649,16.0062966 128.991697,15.771215 129.772414,15.3655172 L129.772414,18.0137931 C128.599763,18.9051639 127.154781,19.3632695 125.682759,19.3103448 C123.4,19.3103448 121.489655,18.3034483 121.489655,15.1724138 L121.489655,6.89655172 Z" id="Path" fill="#C7C7C7"></path>
                <path d="M156.144828,8.04827586 C155.416219,7.61325116 154.579383,7.39328279 153.731034,7.4137931 C151.662069,7.4137931 150.241379,8.88965517 150.241379,11.5517241 L150.241379,18.862069 L146.206897,18.862069 L146.206897,4.08965517 L150.234483,4.08965517 L150.234483,6.89655172 C150.774727,5.04284212 152.442805,3.74452116 154.372414,3.67586207 C155.110858,3.638353 155.840207,3.85229526 156.441379,4.28275862 L156.144828,8.04827586 Z" id="Path" fill="#C7C7C7"></path>
                <g id="logo_black" transform="translate(0.000000, 3.448276)" fill="#000000">
                    <path d="M36.2896552,15.3793103 L32.262069,15.3793103 L32.262069,0.6 L36.2896552,0.6 L36.2896552,3.0137931 C37.204275,1.20614999 39.0934165,0.102351617 41.1172414,0.193103448 C45.0689655,0.193103448 46.5103448,2.87586207 46.5103448,6.16551724 L46.5103448,15.3793103 L42.4896552,15.3793103 L42.4896552,6.96551724 C42.4896552,4.68965517 41.5862069,3.37931034 39.6068966,3.37931034 C37.6275862,3.37931034 36.2896552,4.99310345 36.2896552,7.46896552 L36.2896552,15.3793103 Z" id="Path"></path>
                    <path d="M55.7724138,15.7862069 C51.2137931,15.7862069 47.9931034,12.6 47.9931034,8.00689655 C47.9931034,3.4137931 51.2137931,0.193103448 55.7724138,0.193103448 C60.3310345,0.193103448 63.5793103,3.44827586 63.5793103,8.00689655 C63.5793103,12.5655172 60.3655172,15.7862069 55.7724138,15.7862069 Z M55.7724138,12.7310345 C58.2482759,12.7310345 59.5241379,10.7862069 59.5241379,8.00689655 C59.5241379,5.22758621 58.2482759,3.24827586 55.7724138,3.24827586 C53.2965517,3.24827586 52.0482759,5.19310345 52.0482759,8.00689655 C52.0482759,10.8206897 53.3241379,12.7310345 55.7724138,12.7310345 Z" id="Shape"></path>
                    <path d="M10.2275862,0.6 L14.2482759,0.6 L14.2482759,15.3793103 L10.2275862,15.3793103 L10.2275862,12.9655172 C9.31163896,14.7719102 7.42338756,15.8751885 5.4,15.7862069 C1.44137931,15.7862069 0,13.1034483 0,9.8137931 L0,0.6 L4.02068966,0.6 L4.02068966,9.0137931 C4.02068966,11.2896552 4.93103448,12.6 6.90344828,12.6 C8.87586207,12.6 10.2275862,10.9931034 10.2275862,8.51034483 L10.2275862,0.6 Z" id="Path"></path>
                    <path d="M26.9793103,11.1793103 C26.2555925,12.2556427 25.0018239,12.850786 23.7103448,12.7310345 C21.5787874,12.7975256 19.7870351,11.1438365 19.6827586,9.0137931 L30.7793103,9.0137931 L30.7793103,7.5862069 C30.7793103,3.55172414 28.2758621,0.193103448 23.4482759,0.193103448 C19.0206897,0.193103448 15.7034483,3.55172414 15.7034483,8.20689655 C15.7034483,12.862069 18.9862069,15.7931034 23.5448276,15.7931034 C26.4344828,15.7931034 28.6068966,14.6551724 29.8137931,12.662069 L26.9793103,11.1793103 Z M23.4482759,3.14482759 C25.6896552,3.14482759 26.7310345,4.7862069 26.8965517,6.49655172 L19.7517241,6.49655172 C20.1241379,4.65517241 21.2275862,3.14482759 23.4482759,3.14482759 Z" id="Shape"></path>
                    <path d="M65.7655172,15.7034483 L65.7655172,15.7034483 C64.6495212,15.7034483 63.7448276,14.7987547 63.7448276,13.6827586 L63.7448276,13.6 C63.7448276,12.4840039 64.6495212,11.5793103 65.7655172,11.5793103 L65.7655172,11.5793103 C66.8815133,11.5793103 67.7862069,12.4840039 67.7862069,13.6 L67.7862069,13.6827586 C67.7862069,14.7987547 66.8815133,15.7034483 65.7655172,15.7034483 L65.7655172,15.7034483 Z" id="Path"></path>
                </g>
                <path d="M141.317241,14.6689655 C140.662069,15.7103448 139.606897,16.2275862 138.055172,16.2275862 C135.922455,16.2902375 134.131845,14.6345366 134.027586,12.5034483 L145.124138,12.5034483 L145.124138,11.0344828 C145.124138,7.0137931 142.648276,3.66206897 137.82069,3.66206897 C133.393103,3.66206897 130.075862,7.0137931 130.075862,11.6758621 C130.075862,16.337931 133.358621,19.3103448 137.931034,19.3103448 C140.82069,19.3103448 142.993103,18.1793103 144.2,16.1793103 L141.317241,14.6689655 Z M137.786207,6.64137931 C140.027586,6.64137931 141.068966,8.28275862 141.234483,9.99310345 L134.131034,9.99310345 C134.482759,8.14482759 135.572414,6.64137931 137.786207,6.64137931 Z" id="Shape" fill="#C7C7C7"></path>
            </g>
        </g>
    </g>
</svg>

<svg height="20" width="157" xmlns="http://www.w3.org/2000/svg"><g fill="none"><path d="m71.883 13.855c.234 1.773 1.572 2.683 3.62 2.683 1.476 0 2.683-.504 2.683-1.58 0-1.075-.69-1.44-2.145-1.675l-2.351-.4c-3.152-.504-4.897-1.683-4.897-4.428s2.38-4.765 6.138-4.765c4.09 0 6.545 1.841 6.807 5.13l-3.317.139c-.27-1.683-1.38-2.518-3.524-2.518-1.442 0-2.38.635-2.38 1.642 0 .807.538 1.276 1.607 1.441l2.82.47c3.118.503 4.966 1.813 4.966 4.6 0 3.013-2.62 4.696-6.441 4.696-3.82 0-6.807-1.683-7.076-5.304l3.49-.13zm12.007-6.958h-2.118v-2.367l.987-.172c1.441-.235 1.848-.973 2.179-2.345l.49-2.013h2.448v4.09h4.027v2.807h-4.027v7.31c0 1.276.572 1.848 1.78 1.848a6.207 6.207 0 0 0 2.516-.69v2.649a6.38 6.38 0 0 1 -4.09 1.296c-2.282 0-4.192-1.007-4.192-4.138zm22.8 8.4v3.903a1.766 1.766 0 0 1 -.497 0 3.02 3.02 0 0 1 -3.117-2.586c-.842 1.71-2.855 2.62-5.035 2.62-3.082 0-4.965-1.544-4.965-4.096 0-2.814 2.283-3.986 5.634-4.662l4.049-.78v-.336c0-1.642-.876-2.649-2.587-2.649a2.828 2.828 0 0 0 -2.93 2.449l-3.656-.338c.504-3.021 2.82-5.131 6.745-5.131 3.924 0 6.359 1.827 6.359 5.703v5.904zm-3.931-3.187-2.759.6c-1.745.373-2.986.69-2.986 2.152 0 1 .772 1.607 2.069 1.607 2.11 0 3.724-1.607 3.724-3.993zm15.22-4.062a4.497 4.497 0 0 0 -2.413-.634c-2.07 0-3.49 1.476-3.49 4.138v7.31h-4.028v-14.772h4.028v2.807a4.483 4.483 0 0 1 4.138-3.221 3.241 3.241 0 0 1 2.069.607zm3.51-1.151h-2.117v-2.367l1.007-.172c1.442-.235 1.849-.973 2.18-2.345l.469-2.013h2.448v4.09h4.027v2.807h-4.027v7.31c0 1.276.572 1.848 1.78 1.848a6.207 6.207 0 0 0 2.516-.69v2.649a6.38 6.38 0 0 1 -4.09 1.296c-2.282 0-4.192-1.007-4.192-4.138v-8.275zm34.656 1.151a4.497 4.497 0 0 0 -2.414-.634c-2.069 0-3.49 1.476-3.49 4.138v7.31h-4.034v-14.772h4.027v2.807a4.476 4.476 0 0 1 4.138-3.221 3.269 3.269 0 0 1 2.07.607z" fill="#c7c7c7"/><path d="m36.29 15.38h-4.028v-14.78h4.028v2.414a5.152 5.152 0 0 1 4.827-2.82c3.952 0 5.393 2.682 5.393 5.972v9.213h-4.02v-8.413c0-2.276-.904-3.587-2.883-3.587-1.98 0-3.317 1.614-3.317 4.09v7.91zm19.482.406c-4.558 0-7.779-3.186-7.779-7.78 0-4.592 3.22-7.813 7.78-7.813 4.558 0 7.806 3.255 7.806 7.814s-3.213 7.78-7.807 7.78zm0-3.055c2.476 0 3.752-1.945 3.752-4.724 0-2.78-1.276-4.759-3.752-4.759-2.475 0-3.724 1.945-3.724 4.759s1.276 4.724 3.724 4.724zm-45.544-12.131h4.02v14.78h-4.02v-2.414a5.159 5.159 0 0 1 -4.828 2.82c-3.959 0-5.4-2.683-5.4-5.972v-9.214h4.02v8.414c0 2.276.911 3.586 2.883 3.586 1.973 0 3.325-1.607 3.325-4.09zm16.751 10.58a3.545 3.545 0 0 1 -3.269 1.551 3.91 3.91 0 0 1 -4.027-3.717h11.096v-1.428c0-4.034-2.503-7.393-7.33-7.393-4.428 0-7.746 3.359-7.746 8.014s3.283 7.586 7.842 7.586c2.89 0 5.062-1.138 6.269-3.13l-2.835-1.484zm-3.53-8.035c2.24 0 3.282 1.641 3.448 3.352h-7.145c.372-1.842 1.476-3.352 3.696-3.352zm42.317 12.558a2.02 2.02 0 0 1 -2.021-2.02v-.083a2.02 2.02 0 0 1 4.041 0v.083a2.02 2.02 0 0 1 -2.02 2.02z" fill="#000" transform="translate(0 3.448)"/><path d="m141.317 14.669c-.655 1.041-1.71 1.559-3.262 1.559a3.917 3.917 0 0 1 -4.027-3.725h11.096v-1.469c0-4.02-2.476-7.372-7.303-7.372-4.428 0-7.745 3.352-7.745 8.014s3.283 7.634 7.855 7.634c2.89 0 5.062-1.13 6.269-3.13zm-3.53-8.028c2.24 0 3.282 1.642 3.447 3.352h-7.103c.352-1.848 1.441-3.352 3.655-3.352z" fill="#c7c7c7"/></g></svg>
